message-off-outline.svg

<svg fill="currentColor" viewBox="0 0 24 24"><path d="m7.2 4-2-2H20a2 2 0 0 1 2 2v12c0 .76-.43 1.41-1.05 1.75L19.2 16h.8V4zm14.91 17.46-1.27 1.27L16.11 18H6l-4 4V3.9L1.11 3l1.28-1.27L6.1 5.44 16.65 16h.01l2 2h-.01zm-8-5.46L4 5.89V18l2-2z"/></svg>

<svg  viewBox="0 0 24 24" fill="currentColor"><path  d="M7.2 4L5.2 2H20C21.11 2 22 2.9 22 4V16C22 16.76 21.57 17.41 20.95 17.75L19.2 16H20V4H7.2M22.11 21.46L20.84 22.73L16.11 18H6L2 22V4C2 3.97 2 3.93 2 3.9L1.11 3L2.39 1.73L6.1 5.44L16.65 16H16.66L18.66 18H18.65L22.11 21.46M14.11 16L4 5.89V18L6 16H14.11Z"/></svg>
